img/logo-tecsup.svg

<svg viewBox="0 0 239.77 57.74" xmlns="http://www.w3.org/2000/svg" xmlns:xlink="http://www.w3.org/1999/xlink"
  overflow="hidden">
  <defs></defs>
  <g id="Layer_2">
    <g id="Layer_1-2">
      <path
        d="M77.52 18.68C77.52 18.6 77.52 18.55 77.52 18.52L77.52 18.27C77.52 17.7177 77.0723 17.27 76.52 17.27L70.8 17.27C70.2477 17.27 69.8 17.7177 69.8 18.27 69.8 19.62 69.8 22.87 69.8 26.71L69.8 46.51C69.8 46.59 69.8 46.64 69.8 46.67L69.8 46.92C69.8 47.4723 70.2477 47.92 70.8 47.92L76.53 47.92C77.0823 47.92 77.53 47.4723 77.53 46.92 77.53 45.57 77.53 42.32 77.53 38.48ZM115.33 9.84 60 9.84C59.4477 9.83723 58.9978 10.2827 58.995 10.835 58.9948 10.87 58.9965 10.9051 59 10.94 59 12.15 59 14.32 59 15.36 58.9669 15.9113 59.3869 16.3851 59.9382 16.4182 59.9588 16.4194 59.9794 16.42 60 16.42L78.52 16.42C78.52 16.42 114.69 16.42 115.32 16.42 115.872 16.42 116.32 15.9723 116.32 15.42L116.32 10.82C116.315 10.2716 115.868 9.82997 115.32 9.83ZM115.33 25.11 96.67 25.11C96.1177 25.11 95.67 24.6623 95.67 24.11 95.8102 21.9854 96.7713 19.9987 98.35 18.57 98.79 18.13 98.69 17.27 97.43 17.27L90.16 17.27C89.8719 17.2696 89.6023 17.4119 89.44 17.65 82.13 28.3 87 46.07 105 46.77L115.3 46.77C115.852 46.77 116.3 46.3223 116.3 45.77L116.3 41.25C116.3 40.6977 115.852 40.25 115.3 40.25L104 40.25C99.6861 40.2538 96.0777 36.9746 95.67 32.68 95.67 32.1277 96.1177 31.68 96.67 31.68L115.29 31.68C115.842 31.68 116.29 31.2323 116.29 30.68L116.29 26.11C116.296 25.5577 115.852 25.1056 115.3 25.1 115.3 25.1 115.3 25.1 115.3 25.1ZM165.82 40.26 137.63 40.26C120.41 38.45 123.71 16.42 137.7 16.43L146.76 16.43C147.312 16.43 147.76 15.9823 147.76 15.43L147.76 10.84C147.76 10.2877 147.312 9.84 146.76 9.84L135.76 9.84C111.76 11.59 111.54 44.57 135.4 46.76L155.47 46.76C155.47 46.76 165.17 46.76 165.8 46.76 166.352 46.76 166.8 46.3123 166.8 45.76L166.8 41.23C166.789 40.6816 166.338 40.2444 165.79 40.25Z"
        fill="#231F20" fill-rule="evenodd" />
      <path
        d="M170.85 24.73 162.11 24.73C160.939 24.7909 159.774 24.5205 158.75 23.95 157.612 23.1561 156.989 21.8113 157.12 20.43 157.12 17.7633 158.597 16.43 161.55 16.43L180 16.43C180.552 16.43 181 15.9823 181 15.43L181 10.83C181 10.2777 180.552 9.83 180 9.83L160.6 9.83C146.94 10.83 146.94 30.7 160.7 31.2L169.31 31.2C170.534 31.2 171.725 31.6003 172.7 32.34 173.779 33.1548 174.385 34.4498 174.32 35.8 174.42 37.0921 173.869 38.3489 172.85 39.15 171.662 39.9169 170.262 40.2912 168.85 40.22 168.298 40.2172 167.848 40.6627 167.845 41.215 167.845 41.25 167.846 41.2851 167.85 41.32 167.85 42.53 167.85 44.65 167.85 45.68 167.817 46.2313 168.237 46.7051 168.788 46.7382 168.809 46.7394 168.829 46.74 168.85 46.74L170.75 46.74C171.07 46.74 171.37 46.74 171.67 46.74L171.9 46.74 172.73 46.66 172.73 46.66C173.01 46.66 173.29 46.57 173.56 46.52L173.77 46.52 174.49 46.34 174.57 46.34 175.32 46.09 175.51 46.02 176.14 45.76 176.23 45.76C176.46 45.66 176.68 45.54 176.89 45.42L177.06 45.33 177.6 45 177.69 44.94C177.89 44.81 178.08 44.67 178.26 44.53L178.4 44.42 178.85 44.03 178.94 43.95C179.11 43.8 179.27 43.63 179.43 43.47L179.55 43.34 179.93 42.91 180.02 42.81 180.42 42.27 180.51 42.13 180.81 41.66 180.88 41.54C180.993 41.3467 181.1 41.1533 181.2 40.96L181.27 40.82C181.35 40.65 181.43 40.48 181.5 40.31L181.5 40.22 181.5 40.22C184.24 33.72 180.83 25.12 170.85 24.73ZM227.19 9.86 224.38 9.86C216.44 9.86 217.94 9.86 217.65 9.86 217.098 9.86 216.65 10.3077 216.65 10.86L216.65 15.45C216.65 16.0023 217.098 16.45 217.65 16.45L227.18 16.45C228.505 16.3881 229.775 16.9874 230.57 18.05 231.284 19.1063 231.635 20.3665 231.57 21.64 231.713 23.3194 231.143 24.9816 230 26.22 229.117 26.8977 228.007 27.2093 226.9 27.09 226.9 27.09 217.98 27.09 217.69 27.09 217.138 27.09 216.69 27.5377 216.69 28.09L216.69 32.97C216.69 33.5223 217.138 33.97 217.69 33.97L227.86 33.97C244.95 32 242.69 10.21 227.19 9.86Z"
        fill="#231F20" fill-rule="evenodd" />
      <path
        d="M214.14 9.89 208.35 9.89C207.798 9.89 207.35 10.3377 207.35 10.89L207.35 44 207.35 44C207.35 44.1878 207.502 44.34 207.69 44.34 207.758 44.3388 207.824 44.318 207.88 44.28 211.88 41.74 214.88 37.28 215.08 30.85L215.08 10.87C215.07 10.3481 214.661 9.92124 214.14 9.89Z"
        fill="#231F20" fill-rule="evenodd" />
      <path
        d="M205 37C204.778 36.9999 204.565 37.0901 204.41 37.25 199.78 41.12 191.41 39.06 190.84 30.76L190.84 10.88C190.84 10.3277 190.392 9.88 189.84 9.88L184.13 9.88C183.578 9.88 183.13 10.3277 183.13 10.88L183.13 30.77C183.54 44.24 195.91 49.19 205.13 45.64L205.13 45.64C205.525 45.4923 205.786 45.1121 205.78 44.69L205.78 37.8C205.77 37.37 205.43 37.0209 205 37Z"
        fill="#231F20" fill-rule="evenodd" />
      <path
        d="M27.8 0.11C32.8 2.36 41.8 9.01 42.44 9.41 42.9466 9.62998 43.1789 10.219 42.9589 10.7256 42.8999 10.8614 42.8115 10.9825 42.7 11.08 42.56 11.18 31.7 21.08 29.59 22.83 29.1795 23.1994 28.5472 23.1661 28.1777 22.7556 28.0432 22.6061 27.9568 22.4194 27.93 22.22 27.93 21.79 27.7 17.41 27.7 17.41 25.2227 16.9195 22.6783 17.8486 21.1 19.82 20.8209 20.1974 20.2886 20.2771 19.9112 19.998 19.8752 19.9714 19.8414 19.9419 19.81 19.91L13.51 12C13.2099 11.6758 13.2294 11.1696 13.5536 10.8695 13.5808 10.8443 13.6096 10.8211 13.64 10.8 17.368 7.71636 21.9568 5.85847 26.78 5.48L26.35 1C26.3517 0.447718 26.8007 0.00135948 27.353 0.00303083 27.5083 0.00350074 27.6613 0.0401243 27.8 0.11Z"
        fill="#00ABEC" fill-rule="evenodd" />
      <path
        d="M58 29.31C55.39 34.13 48.09 42.62 47.65 43.22 47.3969 43.7109 46.7937 43.9036 46.3029 43.6504 46.168 43.5809 46.0508 43.4816 45.96 43.36 45.87 43.21 36.85 31.62 35.21 29.43 34.8668 28.9973 34.9393 28.3683 35.372 28.0251 35.5345 27.8963 35.733 27.8211 35.94 27.81 36.37 27.81 40.76 27.93 40.76 27.93 41.4312 25.4949 40.691 22.8887 38.84 21.17 38.4838 20.8728 38.4359 20.3431 38.7331 19.9869 38.7655 19.9481 38.8012 19.9123 38.84 19.88L47.2 14.19C47.545 13.9139 48.0484 13.9698 48.3245 14.3147 48.3486 14.3449 48.3705 14.3767 48.39 14.41 51.1857 18.3578 52.6944 23.0725 52.71 27.91L57.25 27.81C57.7988 27.872 58.1934 28.3672 58.1313 28.916 58.1156 29.0551 58.0709 29.1893 58 29.31Z"
        fill="#A9DEF7" fill-rule="evenodd" />
      <path
        d="M0.15 28.45C2.76 23.63 10.06 15.14 10.5 14.53 10.7564 14.0408 11.3608 13.8521 11.8499 14.1085 11.9839 14.1787 12.1001 14.2784 12.19 14.4 12.28 14.55 21.3 26.14 22.94 28.34 23.3046 28.7548 23.264 29.3867 22.8492 29.7513 22.6721 29.9069 22.4457 29.995 22.21 30 21.78 30 17.39 29.88 17.39 29.88 16.7164 32.3132 17.4526 34.9191 19.3 36.64 19.6562 36.9372 19.7041 37.4669 19.4069 37.8231 19.3745 37.8619 19.3388 37.8977 19.3 37.93L10.94 43.62C10.6003 43.8938 10.103 43.8405 9.82914 43.5008 9.80353 43.4691 9.78041 43.4353 9.76 43.4 6.95108 39.4431 5.43827 34.7125 5.43 29.86L0.89 30C0.340075 29.949-0.0643879 29.4619-0.0133924 28.9119 0.00192187 28.7468 0.0580715 28.588 0.15 28.45Z"
        fill="#00BDF0" fill-rule="evenodd" />
      <path
        d="M27.74 57.59C22.92 55 14.43 47.68 13.83 47.24 13.3408 46.9836 13.1521 46.3792 13.4085 45.8901 13.4787 45.7561 13.5784 45.6399 13.7 45.55 13.84 45.46 25.44 36.44 27.63 34.8 28.0668 34.4621 28.6949 34.5423 29.0328 34.9791 29.1556 35.1378 29.2278 35.3297 29.24 35.53 29.24 35.96 29.12 40.35 29.12 40.35 31.5532 41.0213 34.1579 40.2854 35.88 38.44 36.1772 38.0838 36.7069 38.0359 37.0631 38.3331 37.1019 38.3655 37.1377 38.4012 37.17 38.44L42.86 46.8C43.142 47.1401 43.0949 47.6445 42.7547 47.9265 42.7218 47.9537 42.6868 47.9783 42.65 48 38.7056 50.7961 33.9949 52.3082 29.16 52.33L29.26 56.87C29.1887 57.4177 28.687 57.8039 28.1393 57.7326 27.9976 57.7142 27.8614 57.6655 27.74 57.59Z"
        fill="#6DCCF3" fill-rule="evenodd" />
    </g>
  </g>
</svg>

<svg xmlns="http://www.w3.org/2000/svg" viewBox="0 0 239.77 57.74">
  <defs>
    <style>
      .cls-1 {
        fill: white;
      }

      .cls-1,
      .cls-2,
      .cls-3,
      .cls-4,
      .cls-5 {
        fill-rule: evenodd;
      }

      .cls-2 {
        fill: #00abec;
      }

      .cls-3 {
        fill: #a9def7;
      }

      .cls-4 {
        fill: #00bdf0;
      }

      .cls-5 {
        fill: #6dccf3;
      }
    </style>
  </defs>
  <title>iconAsset 35</title>
  <g id="Layer_2" data-name="Layer 2">
    <g id="Layer_1-2" data-name="Layer 1">
      <path class="cls-1"
        d="M77.52,18.68c0-.08,0-.13,0-.16v-.25a1,1,0,0,0-1-1H70.8a1,1,0,0,0-1,1c0,1.35,0,4.6,0,8.44V46.51c0,.08,0,.13,0,.16v.25a1,1,0,0,0,1,1h5.73a1,1,0,0,0,1-1c0-1.35,0-4.6,0-8.44Zm37.81-8.84H60a1,1,0,0,0-1,1.1c0,1.21,0,3.38,0,4.42a1,1,0,0,0,1,1.06H78.52s36.17,0,36.8,0a1,1,0,0,0,1-1V10.82A1,1,0,0,0,115.32,9.83Zm0,15.27H96.67a1,1,0,0,1-1-1,8.2,8.2,0,0,1,2.68-5.54c.44-.44.34-1.3-.92-1.3H90.16a.87.87,0,0,0-.72.38C82.13,28.3,87,46.07,105,46.77H115.3a1,1,0,0,0,1-1V41.25a1,1,0,0,0-1-1H104a8.36,8.36,0,0,1-8.33-7.57,1,1,0,0,1,1-1h18.62a1,1,0,0,0,1-1V26.11A1,1,0,0,0,115.3,25.1Zm50.49,15.15H137.63c-17.22-1.81-13.92-23.84.07-23.83h9.06a1,1,0,0,0,1-1V10.84a1,1,0,0,0-1-1h-11c-24,1.75-24.22,34.73-.36,36.92h20.07s9.7,0,10.33,0a1,1,0,0,0,1-1V41.23A1,1,0,0,0,165.79,40.25Z" />
      <path class="cls-1"
        d="M170.85,24.73h-8.74a6.24,6.24,0,0,1-3.36-.78,3.85,3.85,0,0,1-1.63-3.52q0-4,4.43-4H180a1,1,0,0,0,1-1v-4.6a1,1,0,0,0-1-1H160.6c-13.66,1-13.66,20.87.1,21.37h8.61a5.61,5.61,0,0,1,3.39,1.14,4.09,4.09,0,0,1,1.62,3.46,3.88,3.88,0,0,1-1.47,3.35,6.75,6.75,0,0,1-4,1.07,1,1,0,0,0-1,1.1c0,1.21,0,3.33,0,4.36a1,1,0,0,0,1,1.06h1.9c.32,0,.62,0,.92,0l.23,0,.83-.08h0c.28,0,.56-.09.83-.14l.21,0,.72-.18.08,0,.75-.25.19-.07.63-.26.09,0c.23-.1.45-.22.66-.34l.17-.09.54-.33.09-.06c.2-.13.39-.27.57-.41l.14-.11.45-.39.09-.08c.17-.15.33-.32.49-.48l.12-.13.38-.43.09-.1.4-.54.09-.14.3-.47.07-.12q.17-.29.32-.58l.07-.14c.08-.17.16-.34.23-.51l0-.09h0C184.24,33.72,180.83,25.12,170.85,24.73ZM227.19,9.86h-2.81c-7.94,0-6.44,0-6.73,0a1,1,0,0,0-1,1l0,4.59a1,1,0,0,0,1,1h9.53a4,4,0,0,1,3.39,1.6,5.87,5.87,0,0,1,1,3.59A6,6,0,0,1,230,26.22a4.33,4.33,0,0,1-3.1.87s-8.92,0-9.21,0a1,1,0,0,0-1,1l0,4.88a1,1,0,0,0,1,1h10.17C244.95,32,242.69,10.21,227.19,9.86Z" />
      <path class="cls-1"
        d="M214.14,9.89h-5.79a1,1,0,0,0-1,1V44h0a.34.34,0,0,0,.34.34.35.35,0,0,0,.19-.06c4-2.54,7-7,7.2-13.43V10.87A1,1,0,0,0,214.14,9.89Z" />
      <path class="cls-1"
        d="M205,37a.82.82,0,0,0-.59.25c-4.63,3.87-13,1.81-13.57-6.49V10.88a1,1,0,0,0-1-1h-5.71a1,1,0,0,0-1,1V30.77c.41,13.47,12.78,18.42,22,14.87h0a1,1,0,0,0,.65-.95V37.8A.82.82,0,0,0,205,37Z" />
      <path class="cls-2"
        d="M27.8.11c5,2.25,14,8.9,14.64,9.3a1,1,0,0,1,.26,1.67c-.14.1-11,10-13.11,11.75a1,1,0,0,1-1.66-.61c0-.43-.23-4.81-.23-4.81a6.77,6.77,0,0,0-6.6,2.41.85.85,0,0,1-1.29.09L13.51,12a.8.8,0,0,1,.13-1.2A23.5,23.5,0,0,1,26.78,5.48L26.35,1A1,1,0,0,1,27.8.11Z" />
      <path class="cls-3"
        d="M58,29.31c-2.61,4.82-9.91,13.31-10.35,13.91a1,1,0,0,1-1.69.14c-.09-.15-9.11-11.74-10.75-13.93a1,1,0,0,1,.73-1.62c.43,0,4.82.12,4.82.12a6.77,6.77,0,0,0-1.92-6.76.84.84,0,0,1,0-1.29l8.36-5.69a.8.8,0,0,1,1.19.22,23.49,23.49,0,0,1,4.32,13.5l4.54-.1A1,1,0,0,1,58,29.31Z" />
      <path class="cls-4"
        d="M.15,28.45c2.61-4.82,9.91-13.31,10.35-13.92a1,1,0,0,1,1.69-.13c.09.15,9.11,11.74,10.75,13.94A1,1,0,0,1,22.21,30c-.43,0-4.82-.12-4.82-.12a6.77,6.77,0,0,0,1.91,6.76.84.84,0,0,1,0,1.29l-8.36,5.69a.79.79,0,0,1-1.18-.22A23.46,23.46,0,0,1,5.43,29.86L.89,30A1,1,0,0,1,.15,28.45Z" />
      <path class="cls-5"
        d="M27.74,57.59C22.92,55,14.43,47.68,13.83,47.24a1,1,0,0,1-.13-1.69c.14-.09,11.74-9.11,13.93-10.75a1,1,0,0,1,1.61.73c0,.43-.12,4.82-.12,4.82a6.78,6.78,0,0,0,6.76-1.91.84.84,0,0,1,1.29,0l5.69,8.36A.8.8,0,0,1,42.65,48a23.51,23.51,0,0,1-13.49,4.33l.1,4.54A1,1,0,0,1,27.74,57.59Z" />
    </g>
  </g>
</svg>
